packages/icons/svg/Fill/keypad.svg

<svg fill="none" height="24" viewBox="0 0 24 24" width="24" xmlns="http://www.w3.org/2000/svg"><path clip-rule="evenodd" d="m5.00003 2c-1.654 0-3 1.346-3 3s1.346 3 3 3 3-1.346 3-3-1.346-3-3-3zm6.99997 0c-1.654 0-2.99999 1.346-2.99999 3s1.34599 3 2.99999 3 3-1.346 3-3-1.346-3-3-3zm10 3c0 1.654-1.346 3-3 3s-3-1.346-3-3 1.346-3 3-3 3 1.346 3 3zm-16.99997 3.99993c-1.654 0-3 1.34597-3 2.99997s1.346 3 3 3 3-1.346 3-3-1.346-2.99997-3-2.99997zm3.99998 2.99997c0-1.654 1.34599-2.99997 2.99999-2.99997s3 1.34597 3 2.99997-1.346 3-3 3-2.99999-1.346-2.99999-3zm9.99999-2.99997c-1.654 0-3 1.34597-3 2.99997s1.346 3 3 3 3-1.346 3-3-1.346-2.99997-3-2.99997zm-16.99997 10.00017c0-1.654 1.346-3 3-3s3 1.346 3 3-1.346 3-3 3-3-1.346-3-3zm9.99997-3c-1.654 0-2.99999 1.346-2.99999 3s1.34599 3 2.99999 3 3-1.346 3-3-1.346-3-3-3zm4 3c0-1.654 1.346-3 3-3s3 1.346 3 3-1.346 3-3 3-3-1.346-3-3z" fill="#6b7280" fill-rule="evenodd"/></svg>

<svg width="24" height="24" viewBox="0 0 24 24" fill="none" xmlns="http://www.w3.org/2000/svg">
<g id="Icon/Fill/keypad">
<path id="Mask" fill-rule="evenodd" clip-rule="evenodd" d="M5 1.99991C3.346 1.99991 2 3.34591 2 4.99991C2 6.65391 3.346 7.99991 5 7.99991C6.654 7.99991 8 6.65391 8 4.99991C8 3.34591 6.654 1.99991 5 1.99991ZM12 1.99991C10.346 1.99991 9 3.34591 9 4.99991C9 6.65391 10.346 7.99991 12 7.99991C13.654 7.99991 15 6.65391 15 4.99991C15 3.34591 13.654 1.99991 12 1.99991ZM22 4.99991C22 6.65391 20.654 7.99991 19 7.99991C17.346 7.99991 16 6.65391 16 4.99991C16 3.34591 17.346 1.99991 19 1.99991C20.654 1.99991 22 3.34591 22 4.99991ZM5 8.99991C3.346 8.99991 2 10.3459 2 11.9999C2 13.6539 3.346 14.9999 5 14.9999C6.654 14.9999 8 13.6539 8 11.9999C8 10.3459 6.654 8.99991 5 8.99991ZM9 11.9999C9 10.3459 10.346 8.99991 12 8.99991C13.654 8.99991 15 10.3459 15 11.9999C15 13.6539 13.654 14.9999 12 14.9999C10.346 14.9999 9 13.6539 9 11.9999ZM19 8.99991C17.346 8.99991 16 10.3459 16 11.9999C16 13.6539 17.346 14.9999 19 14.9999C20.654 14.9999 22 13.6539 22 11.9999C22 10.3459 20.654 8.99991 19 8.99991ZM2 18.9999C2 17.3459 3.346 15.9999 5 15.9999C6.654 15.9999 8 17.3459 8 18.9999C8 20.6539 6.654 21.9999 5 21.9999C3.346 21.9999 2 20.6539 2 18.9999ZM12 15.9999C10.346 15.9999 9 17.3459 9 18.9999C9 20.6539 10.346 21.9999 12 21.9999C13.654 21.9999 15 20.6539 15 18.9999C15 17.3459 13.654 15.9999 12 15.9999ZM16 18.9999C16 17.3459 17.346 15.9999 19 15.9999C20.654 15.9999 22 17.3459 22 18.9999C22 20.6539 20.654 21.9999 19 21.9999C17.346 21.9999 16 20.6539 16 18.9999Z" fill="#000000"/>
</g>
</svg>
